Simply-Orange-Circles/scalable/categories/applications-development.svg

<?xml version="1.0" encoding="UTF-8" standalone="no"?>
<svg
   xmlns:dc="http://purl.org/dc/elements/1.1/"
   xmlns:cc="http://creativecommons.org/ns#"
   xmlns:rdf="http://www.w3.org/1999/02/22-rdf-syntax-ns#"
   xmlns:svg="http://www.w3.org/2000/svg"
   xmlns="http://www.w3.org/2000/svg"
   xmlns:sodipodi="http://sodipodi.sourceforge.net/DTD/sodipodi-0.dtd"
   xmlns:inkscape="http://www.inkscape.org/namespaces/inkscape"
   width="48"
   height="48"
   viewBox="0 0 12.7 12.7"
   version="1.1"
   id="svg4"
   sodipodi:docname="applications-development.svg"
   inkscape:version="0.92.4 (5da689c313, 2019-01-14)">
  <metadata
     id="metadata10">
    <rdf:RDF>
      <cc:Work
         rdf:about="">
        <dc:format>image/svg+xml</dc:format>
        <dc:type
           rdf:resource="http://purl.org/dc/dcmitype/StillImage" />
        <dc:title></dc:title>
      </cc:Work>
    </rdf:RDF>
  </metadata>
  <defs
     id="defs8" />
  <sodipodi:namedview
     pagecolor="#ffffff"
     bordercolor="#666666"
     borderopacity="1"
     objecttolerance="10"
     gridtolerance="10"
     guidetolerance="10"
     inkscape:pageopacity="0"
     inkscape:pageshadow="2"
     inkscape:window-width="1087"
     inkscape:window-height="480"
     id="namedview6"
     showgrid="false"
     inkscape:zoom="4.9166667"
     inkscape:cx="2.1355932"
     inkscape:cy="24"
     inkscape:window-x="0"
     inkscape:window-y="25"
     inkscape:window-maximized="0"
     inkscape:current-layer="svg4" />
  <path
     d="m 6.344,0.073 a 6.29,6.29 0 0 0 -6.29,6.29 6.29,6.29 0 0 0 6.29,6.288 6.29,6.29 0 0 0 6.29,-6.289 6.29,6.29 0 0 0 -6.29,-6.29 z M 6.326,1.009 A 5.407,5.407 0 0 1 11.733,6.416 5.407,5.407 0 0 1 6.326,11.823 5.407,5.407 0 0 1 0.92,6.416 5.407,5.407 0 0 1 6.326,1.01 Z M 8.653,2.285 6.417,6.38 6.594,6.653 8.229,6.656 v 0.72 H 8.16 A 0.245,0.245 0 0 0 7.915,7.621 v 2.472 c 0,0.137 0.11,0.246 0.245,0.246 h 0.869 c 0.136,0 0.246,-0.11 0.246,-0.246 V 7.621 A 0.245,0.245 0 0 0 9.029,7.375 H 8.926 V 6.657 L 10.542,6.66 10.744,6.368 Z M 4.272,2.753 C 3.61,2.785 2.775,3.317 1.982,4.425 c 0,0 2.362,-1.208 2.362,0.727 V 7.025 H 4.108 c 0,0 -0.236,0 -0.236,0.236 v 2.836 c 0,0.236 0.236,0.236 0.236,0.236 h 1.418 c 0,0 0.236,0 0.236,-0.236 V 7.261 C 5.762,7.025 5.526,7.025 5.526,7.025 H 5.29 V 5.046 C 5.294,4.826 5.427,4.233 5.991,4.233 l 0.48,0.429 h 0.71 V 2.77 h -0.71 l -0.48,0.324 c 0,0 -1.058,-0.373 -1.72,-0.342 z"
     id="path2"
     inkscape:connector-curvature="0"
     style="fill:#ff7f2a" />
</svg>

<svg xmlns="http://www.w3.org/2000/svg" width="48" height="48" viewBox="0 0 12.7 12.7"><path fill="#ff7f2a" d="M6.34.07a6.29 6.29 0 0 0-6.29 6.3 6.29 6.29 0 0 0 6.3 6.28 6.29 6.29 0 0 0 6.28-6.29A6.29 6.29 0 0 0 6.34.07zm-.01.94a5.4 5.4 0 0 1 5.4 5.4 5.4 5.4 0 0 1-5.4 5.41 5.4 5.4 0 0 1-5.41-5.4A5.4 5.4 0 0 1 6.32 1zm2.32 1.28L6.42 6.38l.17.27h1.64v.73h-.07a.24.24 0 0 0-.24.24v2.47c0 .14.1.25.24.25h.87c.14 0 .25-.11.25-.25V7.62a.24.24 0 0 0-.25-.24h-.1v-.72h1.61l.2-.3-2.09-4.08zm-4.38.46c-.66.04-1.5.57-2.29 1.68 0 0 2.36-1.21 2.36.72v1.87h-.23s-.24 0-.24.24v2.84c0 .23.24.23.24.23h1.42s.23 0 .23-.23V7.26c0-.23-.23-.23-.23-.23h-.24V5.04c0-.22.14-.82.7-.82l.48.43h.71V2.77h-.7l-.49.32s-1.06-.37-1.72-.34z"/></svg>
